X: 52
T: the Bath
B: Playford "The Dancing Master" 4th edition 1657 p.52
S: http://ks.imslp.net/files/imglnks/usimg/4/48/IMSLP337988-PMLP144608-dancing_master_4th_ed.pdf
Z: 2017 John Chambers <jc:trillian.mit.edu>
P: Longways for as many as will.
L: 1/8
M: C|
K: Gmix
% - - - - - - - - - - - - - - - - - - - - - - - - -
d2 |\
g3d g3d | gfef g2B2 | c2A2 e3e | A8 |\
G2GG G2G2 | GABc d3B | cde2 d3c | B6 |]
% - - - - - - - - - - - - - - - - - - - - - - - - -
%%begintext align
%% Lead up all forwards and back,
%% set and turn S. .| That again :|
%% First Cu. back a D. slip into the 2. place on
%% the outside, hands all four, and go round :
%% Do thus the last.
%%endtext
%%sep 2 2 500
%%begintext align
%% Sides all, set and turn s. .| That again :
%% The first four meet and cross over,
%% go half round to the right hand into each others places .:|
%% Do thus to the last.
%%endtext
%%sep 2 2 500
%%begintext align
%% Arms all, set and turn single .| That again :|
%% The 2. first men meet and change places,
%% the Women as much .
%% then 2. slip down, and the first up,
%% then the first down and the 2. up .:|
%% Do thus to the last, the rest following in order.
%%endtext
%%sep 2 2 500
